svgs/thin/location-pen.svg

<svg xmlns="http://www.w3.org/2000/svg" viewBox="0 0 384 512"><!--! Font Awesome Pro 6.0.0-alpha3 by @fontawesome - https://fontawesome.com License - https://fontawesome.com/license (Commercial License) --><path d="M270.4 104.2c-10.93-10.93-28.66-10.94-39.6-.002L107.9 227.1L106.2 230.3l-10.08 50.53C95.29 284.9 98.57 287.1 102.2 287.1c.3887 0 .6719-.0381 1.064-.1182l50.53-10.08l3.133-1.678l122.9-122.9c10.94-10.93 10.94-28.66 .0039-39.6L270.4 104.2zM147.7 262.7L114.7 269.3l6.594-32.96l91.86-91.86l26.38 26.38L147.7 262.7zM268.5 141.9l-17.65 17.64l-26.38-26.38l17.65-17.65c4.688-4.684 12.28-4.689 16.97 .002l9.408 9.41C273.2 129.6 273.2 137.2 268.5 141.9zM192 0C85.97 0 0 85.97 0 192c0 77.41 26.97 99.03 172.3 309.7C177 508.6 184.5 512 192 512s14.95-3.441 19.72-10.32C357 291 384 269.4 384 192C384 85.97 298 0 192 0zM198.6 492.6C196.5 495.6 193.6 495.1 192 495.1s-4.496-.4473-6.549-3.41c-25.93-37.59-48.1-69.17-67.02-96.12C31.64 272.8 16 250.6 16 192c0-97.05 78.95-176 176-176s176 78.95 176 176c0 58.55-15.64 80.83-102.4 204.5C246.6 423.4 224.5 454.1 198.6 492.6z"/></svg>

<svg xmlns="http://www.w3.org/2000/svg" viewBox="0 0 384 512"><!-- Font Awesome Pro 6.0.0-alpha2 by @fontawesome - https://fontawesome.com License - https://fontawesome.com/license (Commercial License) --><path d="M270.406 104.198C259.479 93.27 241.746 93.257 230.807 104.196L107.871 227.129C107.301 228.193 106.768 229.189 106.199 230.254L96.115 280.676C95.289 284.819 98.57 287.998 102.152 287.998C102.541 287.998 102.936 287.961 103.328 287.881L153.742 277.799C154.809 277.229 155.807 276.694 156.875 276.121L279.811 153.204C290.746 142.271 290.748 124.544 279.814 113.608L270.406 104.198ZM147.674 262.695L114.709 269.287L121.303 236.326L213.16 144.47L239.537 170.847L147.674 262.695ZM268.498 141.89L250.85 159.534L224.473 133.157L242.121 115.509C246.809 110.825 254.4 110.819 259.092 115.511L268.5 124.921C273.176 129.597 273.203 137.185 268.498 141.89ZM192 0C85.969 0 0 85.969 0 192.001C0 269.408 26.969 291.033 172.281 501.676C177.047 508.559 184.523 512 192 512S206.953 508.559 211.719 501.676C357.031 291.033 384 269.408 384 192.001C384 85.969 298.031 0 192 0ZM198.564 492.566C196.496 495.553 193.564 496 192 496S187.504 495.553 185.451 492.59C159.52 455 137.352 423.421 118.432 396.468C31.639 272.832 16 250.553 16 192.001C16 94.954 94.953 16 192 16S368 94.954 368 192.001C368 250.553 352.361 272.832 265.568 396.468C246.648 423.421 224.48 455 198.564 492.566Z"/></svg>
